src/assets/images/error.svg

<svg width="17" height="18" viewBox="0 0 17 18" fill="none" xmlns="http://www.w3.org/2000/svg">
<path d="M16.9426 17.0101L8.77746 0.646974C8.68141 0.451009 8.3452 0.451009 8.22512 0.646974L0.0360224 17.0591C-0.0120075 17.1571 -0.0120075 17.2795 0.0360224 17.353C0.0840523 17.451 0.180112 17.5 0.300187 17.5H16.6784C16.8465 17.5 16.9906 17.353 16.9906 17.1816C17.0146 17.1326 16.9906 17.0591 16.9426 17.0101ZM8.20111 12.062V5.69308C8.20111 5.52161 8.39323 5.37464 8.56133 5.37464C8.72943 5.37464 8.92155 5.52161 8.92155 5.69308V12.062C8.92155 12.2334 8.72943 12.3804 8.56133 12.3804C8.39323 12.3804 8.20111 12.2334 8.20111 12.062ZM9.44988 14.389C9.44988 14.9035 9.04163 15.3199 8.53732 15.3199C8.033 15.3199 7.62475 14.9035 7.62475 14.389C7.62475 13.8746 8.033 13.4582 8.53732 13.4582C9.04163 13.4582 9.44988 13.8746 9.44988 14.389Z" fill="#C6007E"/>
</svg>

<svg xmlns="http://www.w3.org/2000/svg" width="17" height="18" fill="none">
  <path fill="#C6007E" d="M16.943 17.01L8.777.647c-.096-.196-.432-.196-.552 0L.036 17.059c-.048.098-.048.22 0 .294.048.098.144.147.264.147h16.378a.321.321 0 0 0 .313-.318c.024-.05 0-.123-.048-.172zM8.2 12.062V5.693c0-.171.192-.318.36-.318.168 0 .36.147.36.318v6.369c0 .171-.192.318-.36.318-.168 0-.36-.147-.36-.318zm1.249 2.327c0 .514-.408.93-.913.93a.921.921 0 0 1-.912-.93c0-.514.408-.93.912-.93.505 0 .913.416.913.93z"/>
</svg>
